X: 10902
T: COLONEL McBAIN'S REEL
R: reel
B: K\"ohler's Violin Repository, v.1, 1885 p.90 #2
F: http://www.archive.org/details/klersviolinrepos01edin
Z: 2012 John Chambers <jc:trillian.mit.edu>
M: C|
L: 1/8
K: Gm
uc |\
B2(Gd) BGdG | (A/B/c) (Fc) AFcA | B2(Gd) BGdG | A^FDF G3 :| uA |
B2(Bf) B/B/B (dB) | (cd)cB (AB)cA | Gg-ga (ba)g^f | (g/a/b) (a^f) g2(ga) |
(g/a/b) (fd) Bdbd | caBg ABcA | G(g^fa) g=Bce | dBcA G2"_Fine."G |]

%%sep 2 1 500

